packages/core/src/svg/ui/link-external.svg

<svg xmlns="http://www.w3.org/2000/svg" viewBox="0 0 24 24"><g fill="none" fill-rule="evenodd"><path d="M0 0h24v24H0z"/><path clip-rule="evenodd" d="M5 3v16h16v2H3V3h2zm16 0v9h-2V6.413L9.914 15.5 8.5 14.086 17.585 5H12V3h9z" fill="currentColor"/></g></svg>

<svg width="24" height="24" viewBox="0 0 24 24" fill="none" xmlns="http://www.w3.org/2000/svg">
<path fill-rule="evenodd" clip-rule="evenodd" d="M5 3V19H21V21H3V3H5ZM21 3V12H19V6.413L9.91421 15.5L8.5 14.0858L17.585 5H12V3H21Z" fill="currentColor"/>
</svg>
